24x24/actions/gnumeric-format-precision-increase.svg

<svg viewBox="0 0 24 24" xmlns="http://www.w3.org/2000/svg"><path d="m8.5 4c-1.933 0-3.5 1.79-3.5 4v3c0 2.21 1.567 4 3.5 4s3.5-1.79 3.5-4v-3c0-2.21-1.567-4-3.5-4zm8 0c-1.933 0-3.5 1.79-3.5 4v3c0 2.21 1.567 4 3.5 4s3.5-1.79 3.5-4v-3c0-2.21-1.567-4-3.5-4zm-8 1c1.38 0 2.5 1.343 2.5 3v3c0 1.657-1.12 3-2.5 3s-2.5-1.343-2.5-3v-3c0-1.657 1.12-3 2.5-3zm8 0c1.38 0 2.5 1.343 2.5 3v3c0 1.657-1.12 3-2.5 3s-2.5-1.343-2.5-3v-3c0-1.657 1.12-3 2.5-3zm-12.5 9v1h1v-1z" fill="#8b9cbe"/><path d="m16 16v2h-2v1h2v2h1v-2h2v-1h-2v-2z" fill="#1d99f3"/></svg>

<svg viewBox="0 0 24 24" xmlns="http://www.w3.org/2000/svg">
    <path d="M8.5 4C6.567 4 5 5.79 5 8v3c0 2.21 1.567 4 3.5 4s3.5-1.79 3.5-4V8c0-2.21-1.567-4-3.5-4zm8 0C14.567 4 13 5.79 13 8v3c0 2.21 1.567 4 3.5 4s3.5-1.79 3.5-4V8c0-2.21-1.567-4-3.5-4zm-8 1C9.88 5 11 6.343 11 8v3c0 1.657-1.12 3-2.5 3S6 12.657 6 11V8c0-1.657 1.12-3 2.5-3zm8 0C17.88 5 19 6.343 19 8v3c0 1.657-1.12 3-2.5 3S14 12.657 14 11V8c0-1.657 1.12-3 2.5-3zM4 14v1h1v-1z" fill="#8b9cbe"/>
    <path d="M16 16v2h-2v1h2v2h1v-2h2v-1h-2v-2z" fill="#1d99f3"/>
</svg>
